src/icons/svg/windows.svg

<?xml version="1.0"?><svg xmlns="http://www.w3.org/2000/svg" width="40" height="40" viewBox="0 0 40 40"><path  d="m16.7 22.5v14.5l-15.2-2.1v-12.4h15.2z m0-16.6v14.7h-15.2v-12.6z m21.9 16.6v17.5l-20.2-2.8v-14.7h20.2z m0-19.6v17.7h-20.2v-15z"></path></svg>

<svg xmlns="http://www.w3.org/2000/svg" width="40" height="40" viewBox="0 0 40 40"><path d="M16.7 22.5V37L1.5 34.9V22.5h15.2zm0-16.6v14.7H1.5V8zm21.9 16.6V40l-20.2-2.8V22.5h20.2zm0-19.6v17.7H18.4v-15z"/></svg>
